X:138
T: EIN NIEDLICHES MAEDCHEN EIN JUNGES BLUT
N: B0168
O: Europa, Mitteleuropa, Deutschland, Westerwald; Dillkreis; Wetzlar
R: Ballade, Romanze
M: 6/8
L: 1/8
K: F
F | FFFFGA | B2BB2
B | cccFGA | B3z2
B | BGGGGG | FAcf2
A | ccccBG | F3z2
F | FFFFGA | B3z2
B | ccccBc | d3z2
B | BGGG2G | FAcf2
A | ccccBG | F3z2

